**kern
*staff1
*I"Piano
=1- 
*clefG2
*k[b-e-a-d-]
*A-:
*M4/4
1r
=2 
1r
=3 
1r
=4 
1r
=5 
1r
=6 
1r
=7 
1r
=8 
1r
=9|| 
12a-/L
12b-/
12a-/J
12f/
12r
12e-/
12a-/L
12b-/
12a-/J
8f/
8r
=10 
!!linebreak:original
12a-/L
12b-/
12a-/J
8f/L
8cc/J
2r
=11 
12a-/L
12b-/
12a-/J
12f/
12r
12e-/
12a-/L
12b-/
12a-/J
12f/
12r
12e-/
=12 
12a-/L
12b-/
12a-/J
8f/L
8e-/J
2r
=13 
!!linebreak:original
12a-/L
12b-/
12a-/J
12f/
12r
12e-/
12a-/L
12b-/
12a-/J
12f/
12r
12e-/
=14 
12a-/L
12b-/
12a-/J
8f/L
8cc/J
2r
=15 
12a-/L
12b-/
12a-/J
2f/
12a-/L
12b-/
12a-/J
=16 
!!linebreak:original
2f/
12a-/L
12b-/
12a-/J
8f/
8r
=17 
12a-/L
12b-/
12a-/J
12f/
12r
12e-/
12a-/L
12b-/
12a-/J
12f/
12r
12e-/
=18 
12a-/L
12b-/
12a-/J
8f/L
8cc/J
2r
=19 
!!linebreak:original
12a-/L
12b-/
12a-/J
12f/
12r
12e-/
12a-/L
12b-/
12a-/J
12f/
12r
12e-/
=20 
12a-/L
12b-/
12a-/J
8f/L
8e-/J
2r
=21 
!!linebreak:original
12a-/L
12b-/
12a-/J
12f/
12r
12e-/
12a-/L
12b-/
12a-/J
12f/
12r
12e-/
=22 
12a-\L
12cc\
12a-\J
8f/L
8cc/J
2r
=23 
12a-/L
12b-/
12a-/J
2f/
12a-/L
12b-/
12a-/J
=24 
!!linebreak:original
2f/
12a-/L
12b-/
12a-/J
8f/
8r
=25 
4r
8.dn/L
16f/Jk
8.f#/L
16a#/Jk
8.bn/L
16an/Jk
=26 
8ddn\L
8bn\
8dd\
8een\J
2r
=27 
!!linebreak:original
4r
8.d-/L
16en/Jk
8.f/L
16a-/Jk
8.b-/L
16a-/Jk
=28 
8dd-\L
8b-\
8dd-\
8ee-\J
2r
=29 
4r
4c/
8cc\L
[8an\
8a\J]
8r
=30 
4c-/
8.cc-\L
16cc-\Jk
4a-/
4r
=31 
4r
4B-/
8b-/L
[8g/
8g/J]
8r
=32 
4An/
8an/L
[8f#/J
2f#/]
=33 
12a-/L
12b-/
12a-/J
12f/
12r
12e-/
12a-/L
12b-/
12a-/J
8f/
8r
=34 
12a-/L
12b-/
12a-/J
8f/L
8cc/J
2r
=35 
!!linebreak:original
12a-/L
12b-/
12a-/J
12f/
12r
12e-/
12a-/L
12b-/
12a-/J
12f/
12r
12e-/
=36 
12a-/L
12b-/
12a-/J
8f/L
8e-/J
2r
=37 
!!linebreak:original
12a-/L
12b-/
12a-/J
12f/
12r
12e-/
12a-/L
12b-/
12a-/J
12f/
12r
12e-/
=38 
12a-/L
12b-/
12a-/J
8f/L
8cc/J
2r
=39 
12a-/L
12b-/
12a-/J
2f/
12a-/L
12b-/
12a-/J
=40 
!!linebreak:original
2f/
12a-/L
12b-/
12a-/J
8f/
8r
=41|| 
2r
8ee-\L
8ff\
8gg\
8aa-\J
=42 
8bb-\L
8aa-\
8gg\
8ff\J
8ee-\L
8dd-\
8cc\
8b-\J
=43 
8g/L
8a-/
8b-/
8g/J
8a-/L
8f/
8e-/
(8d-/J
=44 
!!linebreak:original
12d-/L)
12f/
12a-/J
8cc\L
[8bn\J
8b\]
8r
8g/L
8e-/J
=45 
8b-/L
8a-/J
4r
8g-/L
8a-/
8g-/
8en/J
=46 
8f/L
8e-/J
8r
8f/
8a-\L
8b-\
8bn\
8cc\J
=47 
!!linebreak:original
8dd-\L
8bn\
8cc\J
8r
8g/L
8b-/
8an/J
8r
=48 
8a-/
8r
4r
2r
=49 
4aa-\
8aa-\L
[8ff\J
8ff\]
8r
8r
8cc\
=50 
8ee-\L
8dd-\J
8r
[8cc\
8cc\]
8r
8r
8g/
=51 
!!linebreak:original
8b-\
8r
8r
8cc\
12ff\L
12gg\
12bb-\J
8aan\L
8gg\J
=52 
8aa-\L
8ff\
8dd-\
8b-\J
16ff#\LL
16gg\
16ff#\
16ee-\JJ
8een\L
8ddn\J
=53 
8ee-\L
8cc\J
4b-\
4a-/
8g-/L
8en/J
=54 
!!linebreak:original
8f/
4e-/
8f/
8a-\L
8b-\
8bn\
8cc\J
=55 
8dd-\L
8bn\
8cc\J
8r
8g/L
8b-/
8an/J
8r
=56 
8a-/
8r
4r
2r
=57 
!!pagebreak:original
8dddn\
4ccc\
8een\
8bbn\L
8bb-\
8aan\
8aa-\J
=58 
8gg\L
8ff#\
8een\
8ddn\J
16cc\LL
16dd\
16cc\
16bn\JJ
8an/L
8g/J
=59 
!!linebreak:original
8g-/L
8en/
8f/
8a-/J
8cc-\L
8ee-\J
4cc-\
=60 
8b-/L
8g/J
4r
4r
8r
8g/
=61 
8cc\L
8ddn\
8een\
8ff\J
12gg\L
12gg-\
12ff\J
4ee\
=62 
!!linebreak:original
8r
24ff#\LL
24gg\
24ff#\JJ
8een\L
8ddn\J
8ee-\L
8dd-\
8cc-\
8an\J
=63 
8b-\
8r
8dn/L
8f/J
8g/L
8a-/
8b-/
8a-/J
=64 
!!linebreak:original
8an\L
8bn\
8cc#\
[8ff#\J
4ff#\]
8.een\L
16ddn\Jk
=65 
8ee-\L
8cc\
8g\
[8b-\J
8b-\]
4a-/
8r
=66 
8g/L
8f/J
4r
2r
=67 
4r
8e-/L
8f/J
8a-\L
8b-\
8bn\
8cc\J
=68 
!!linebreak:original
8dd-\L
8ddn\
8ee-\
[8een\J
4ee\]
4r
=69 
8ddn\L
8ee-\
8dd-\
8bn\J
8cc\L
[8b\J
8b/L]
16a-/L
16g-/JJ
=70 
8f/
4e-/
16f/LL
16a-/JJ
8bn\L
8cc\
8dd-\
8b\J
=71 
!!linebreak:original
8cc/L
8cc/
8g/
[8b-/J
4..b-\]
16an/
=72 
8a-/
8r
4r
4r
4ee-\
=73|| 
8aa-\L
8aa-\
8gg\J
8r
8bb-\
4aa-\
[8gg\
=74 
8gg\]
4ff\
8an/
8ee-\L
8dd-\
8cc\
8b-\J
=75 
!!linebreak:original
4a-/
8b-/L
8a-/J
8an/L
8c/
8e-/
8g-/J
=76 
8f/L
8e-/J
4d-/
8r
8f/L
8a-/
8cc/J
=77 
12g/L
12a-/
12an/J
8b-\L
8cc\J
8dd-\L
8ddn\
8ee-\
8een\J
=78 
4ff\
8een\L
[8ee\J
4ee\]
4r
=79 
!!linebreak:original
8ee-\L
8cc\
8g\J
8r
4b-\
8an/L
8a-/J
=80 
1r
=81 
16ccc\LL
16ddd-\J
8eee-\J
16ddd-\LL
16ccc\
16bb-\
16aa-\JJ
16gg\LL
16aa-\
16bb-\
16aa-\JJ
16gg\LL
16ff\
16ee-\
16cc\JJ
=82 
!!pagebreak:original
16b-/LL
16a-/
16an/
16a-/JJ
16b-/LL
16a-/
16g/
16f/JJ
16e-/LL
16f/
16e-/
16dn/JJ
16e-/LL
16f/
16g/
16a-/JJ
=83 
!!linebreak:original
16b-/LL
16g/
16a-/
16b-/JJ
16cc\LL
16dd-\
16ddn\
16ee-\JJ
16een\LL
16ff\
16ff#\
16gg\JJ
24aa-\LL
24gg\
24bb-\J
[8bb-\J
=84 
4bb-\]
8aa-\L
8gg\J
8ff\L
8ee-\
8dd-\
8cc\J
=85 
!!linebreak:original
8b-/L
8g/
8a-/
8f/J
8g-/L
8a-/
8g-/
8en/J
=86 
8f/L
8en/
8dn/
8f/J
8a-\L
8b-\
8bn\
8cc\J
=87 
8dd-\L
8bn\
8cc\
8ee-\J
2r
=88 
1r
=89 
!!linebreak:original
8r
4eeen\
eeeq/
[8eee-\
6eee-\]
6ccc\
12aa-\
12r
=90 
8eeen\
8r
8r
8dddn\
8ccc\L
8bbn\
8aan\J
8r
=91 
8ccc-\
4bb-\
8aa-\
8gg-\L
8ff\
8ee-\
8dd-\J
=92 
!!linebreak:original
8cc-/L
8b-/
8a-/
8g-/J
8f/L
8c-/
8e-/
8f/J
=93 
8en/L
8g/
8cc/
8een/J
8gg\L
8ee\
8cc\J
8r
=94 
8gg\
4gg-\
8ff-\
8ee-\L
8dd-\
8cc-\
8an\J
=95 
!!linebreak:original
8b-\
8r
8d-/L
8f/J
8g/L
8a-/
8b-/
8a-/J
=96 
8an/L
8en/J
4r
2r
=97 
1r
=98 
8b-\
8r
8e-/L
8f/J
8a-\L
8b-\
8bn\
8cc\J
=99 
!!linebreak:original
8dd-\L
8bn\
8cc\
[8ee-\J
4ee-\]
16cc#\LL
16ddn\
16cc#\
16b\JJ
=100 
8cc\
8r
4r
2r
=101 
16gg-\LL
16aa-\J
8gg-\J
8aa-\L
8gg-\J
8aa-\L
8ff\J
8aa-\L
16ff\L
16aa-\JJ
=102 
!!linebreak:original
8ff\L
16aa-\L
[16ff\JJ
16ff\LL]
16aa-\J
8ff\J
16aa-\LL
16aa-\J
8ff\J
16aa-\LL
16aa-\
16gg\
16ff\JJ
=103 
16ee-\LL
16dd-\
16cc\
16b-\JJ
8a-/L
16b-/L
16a-/JJ
16g/LL
16f/
16e-/
16d-/JJ
12dn/L
12f/
12a-/J
=104 
!!pagebreak:original
8.cc/L
16a-/Jk
8b-/L
gq/
8a-/J
4r
8r
8e-/
=105|| 
8a-\L
8b-\
8bn\
8cc\J
4dd-\
8cc\L
[8a-\J
=106 
4a-/]
8f/L
8e-/J
8cc/L
8a-/J
4r
=107 
8e-/L
8f/
8a-/
8bn/J
8cc/L
8a-/
8f/
[8a-/J
=108 
!!linebreak:original
4a-/]
8f/L
8e-/J
8g-/L
8e-/J
4r
=109 
4r
8r
8c/
8e-/L
8f/
8a-/J
8r
=110 
4f/
8f/L
8a-/J
8cc\L
8ee-\
8dd-\
8bn\J
=111 
4cc\
8g/L
8b-/J
8an/
8r
8a-\L
8ee-\J
=112 
!!linebreak:original
1r
=113 
2r
8bbn\
4ccc\
8aa-\
=114 
4ee-\
8een\L
[8ff\J
8ff\L]
8cc\
8a-\
8f\J
=115 
8bn\
4cc\
8a-/
4f/
8en/L
8dn/J
=116 
!!linebreak:original
8e-/L
8c/J
12d-/L
12f/
12a-/J
8cc/L
8bn/
8g/
8e-/J
=117 
4b-\
8a-/L
8b-/J
8cc\L
8dd-\
8ddn\
8ee-\J
=118 
4een\
8ff\L
[8ee\J
8ee\]
8r
4r
=119 
!!linebreak:original
8r
24ee-\LL
24ff\
24ee-\JJ
8dd-\L
8cc\J
8b-/L
8g/
8a-/
8b-/J
=120 
8a-/
8r
4r
4r
8r
8en/
=121 
8an\L
8een\
8cc\
8a\J
8a-/
4ee\
[8g/
=122 
4g/]
2f#/
4r
=123 
!!linebreak:original
8r
8f/L
8a-/
8bn/J
8ee-\L
8ff\
8gg-\
8een\J
=124 
8ff\
8r
8bn\L
[8ee-\J
8ee-\]
8r
4r
=125 
8r
8g\L
8cc\
8ddn\J
8een\L
8ff\
8gg\
8aan\J
=126 
!!linebreak:original
4bb-\
8aan\L
[8aa-\J
4aa-\]
8gg-\L
8een\J
=127 
8ff\L
8ee-\
8dd-\
8ddn\J
8ee-\L
8cc#\
8dd\
8ccn\J
=128 
4dd-\
8a-\L
[8cc-\J
4cc-\]
8an/L
8g/J
=129 
4a-/
4r
2r
=130 
!!linebreak:original
8ee-\
8r
16bbn\LL
16ccc\
16ccc\
16bb\JJ
8ccc\L
16bb\L
16ccc\JJ
16ccc\LL
16bb\J
8ccc\J
=131 
!!pagebreak:original
16bbn\LL
16ccc\
16ccc\
16bb\JJ
8ccc\L
16bb\L
16ccc\JJ
16bb-\LL
16aa-\
16gg\
16aa-\JJ
16bb-\LL
16aa-\
16gg\
16ff\JJ
=132 
!!linebreak:original
16ee-\LL
16dd-\
16cc\
16b-\JJ
8a-/L
16b-/L
16a-/JJ
16g/LL
16f/J
8e-/J
16e-/LL
16e-/
16en/
16f/JJ
=133 
16a-\LL
16b-\
16bn\
16cc\JJ
16dd-\LL
16b\
16cc\
16b-\JJ
16a-/LL
16g/J
[8b-/J
4b-\]
=134 
!!linebreak:original
24a-/LL
24b-/
24a-/J
8g-/J
8f/L
8e-/J
8d-/L
8a-/
8bn/
8cc/J
=135 
8dd-\L
8ddn\
8ee-\
8een\J
8dd\L
8ee-\J
4dd-\
=136 
4cc\
8g/L
8a-/J
2r
== 
*-
